; generated by PrusaSlicer 2.1.0+win64 on 2020-02-18 at 18:43:40 UTC

; 

; external perimeters extrusion width = 0.45mm
; perimeters extrusion width = 0.45mm
; infill extrusion width = 0.45mm
; solid infill extrusion width = 0.45mm
; top infill extrusion width = 0.40mm
; support material extrusion width = 0.35mm
; first layer extrusion width = 0.42mm

M73 P0 R32
M73 Q0 S33
M201 X1000 Y1000 Z1000 E5000 ; sets maximum accelerations, mm/sec^2
M203 X200 Y200 Z12 E120 ; sets maximum feedrates, mm/sec
M204 P1250 R1250 T1250 ; sets acceleration (P, T) and retract acceleration (R), mm/sec^2
M205 X8.00 Y8.00 Z0.40 E1.50 ; sets the jerk limits, mm/sec
M205 S0 T0 ; sets the minimum extruding and travel feed rate, mm/sec
M107
M862.3 P "MK3S" ; printer model check
M862.1 P0.4 ; nozzle diameter check
M115 U3.8.1 ; tell printer latest fw version
G90 ; use absolute coordinates
M83 ; extruder relative mode
M104 S215 ; set extruder temp
M140 S60 ; set bed temp
M190 S60 ; wait for bed temp
M109 S215 ; wait for extruder temp
G28 W ; home all without mesh bed level
G80 ; mesh bed leveling
G1 Y-3.0 F1000.0 ; go outside print area
G92 E0.0
G1 X60.0 E9.0 F1000.0 ; intro line
M73 Q0 S33
M73 P0 R32
G1 X100.0 E12.5 F1000.0 ; intro line
G92 E0.0
M221 S95
G21 ; set units to millimeters
G90 ; use absolute coordinates
M83 ; use relative distances for extrusion
M900 K30 ; Filament gcode
;BEFORE_LAYER_CHANGE
G92 E0.0
;0.2


G1 E-0.80000 F2100.00000
G1 Z0.600 F10800.000
;AFTER_LAYER_CHANGE
;0.2
G1 X81.190 Y85.833
G1 Z0.200
G1 E0.80000 F2100.00000
M204 S1000
G1 F1200
G1 X81.712 Y85.104 E0.02810
G1 X82.373 Y84.687 E0.02451
G1 X83.138 Y84.529 E0.02451
G1 X110.474 Y84.163 E0.85715
G1 X120.303 Y84.163 E0.30820
G1 X144.778 Y84.518 E0.76747
G1 X145.330 Y84.599 E0.01749
G1 X145.909 Y84.856 E0.01987
G1 X164.082 Y96.440 E0.67572
G1 X164.466 Y96.777 E0.01601
G1 X164.762 Y97.197 E0.01612
G1 X164.952 Y97.671 E0.01601
G1 X165.027 Y98.176 E0.01601
G1 X165.027 Y113.620 E0.48424
G1 X164.921 Y114.245 E0.01987
G1 X164.640 Y114.813 E0.01987
G1 X164.208 Y115.277 E0.01987
G1 X163.661 Y115.597 E0.01987
G1 X152.464 Y120.063 E0.37796
G1 X150.899 Y120.368 E0.05001
G1 X83.170 Y120.383 E2.12359
G1 X82.301 Y120.193 E0.02788
G1 X81.579 Y119.674 E0.02788
G1 X81.160 Y119.006 E0.02473
G1 X81.004 Y118.233 E0.02473
G1 X81.003 Y86.710 E0.98840
G1 X81.177 Y85.892 E0.02622
G1 F8640
G1 X81.712 Y85.104 E-0.21973
G1 X82.373 Y84.687 E-0.18047
G1 X83.138 Y84.529 E-0.18047
G1 X83.915 Y84.519 E-0.17933
G1 E-0.04000 F2100.00000
G1 Z0.800 F10800.000
G1 X87.990 Y89.544
G1 Z0.200
G1 E0.80000 F2100.00000
G1 F1200
G1 X87.990 Y103.524 E0.35698
G1 X88.497 Y103.524 E0.01295
G1 X88.497 Y89.682 E0.35345
G1 X89.004 Y89.682 E0.01295
G1 X89.004 Y98.873 E0.23470
G1 X89.036 Y98.873 E0.00082
G1 X89.066 Y98.843 E0.00109
G1 X89.511 Y98.843 E0.01136
G1 X89.511 Y89.682 E0.23393
G1 X90.018 Y89.682 E0.01295
G1 X90.018 Y98.982 E0.23746
G1 X89.225 Y99.016 F10800.000
G1 F1200
G1 X89.225 Y102.826 E0.11947
G1 X89.004 Y102.830 F10800.000
G1 F1200
G1 X89.004 Y103.524 E0.01773
G1 X89.511 Y103.524 E0.01295
G1 X89.511 Y102.998 E0.01343
G1 X90.018 Y102.998 E0.01295
G1 X90.018 Y103.663 E0.01696
G1 X91.488 Y102.864 F10800.000
G1 F1200
G1 X91.488 Y106.489 E0.11368
G1 X90.733 Y106.489 E0.02365
G1 X90.733 Y103.033 E0.10836
G1 X90.411 Y103.033 E0.01012
G1 X90.411 Y103.866 E0.02612
G1 X89.979 Y103.866 E0.01352
G1 X89.979 Y106.489 E0.08224
G1 X89.225 Y106.489 E0.02365
G1 X89.225 Y103.866 E0.08224
G1 X88.471 Y103.866 E0.02365
G1 X88.471 Y106.489 E0.08224
G1 X87.717 Y106.489 E0.02365
G1 X87.717 Y103.866 E0.08224
G1 X87.419 Y103.866 E0.00933
G1 X87.419 Y89.340 E0.45547
G1 X87.717 Y89.340 E0.00933
G1 X87.717 Y86.717 E0.08224
G1 X88.471 Y86.717 E0.02365
G1 X88.471 Y89.340 E0.08224
G1 X89.225 Y89.340 E0.02365
G1 X89.225 Y86.717 E0.08224
G1 X89.979 Y86.717 E0.02365
G1 X89.979 Y89.340 E0.08224
G1 X90.411 Y89.340 E0.01352
G1 X90.411 Y98.808 E0.29688
G1 X90.733 Y98.808 E0.01012
G1 X90.733 Y86.717 E0.37912
G1 X91.488 Y86.717 E0.02365
G1 X91.488 Y98.808 E0.37912
G1 X91.799 Y98.808 E0.00975
G1 X92.033 Y99.043 E0.01040
G1 X92.033 Y98.568 E0.01488
G1 X92.242 Y98.568 E0.00653
G1 X92.242 Y86.717 E0.37158
G1 X92.996 Y86.717 E0.02365
G1 X92.996 Y98.568 E0.37158
G1 X93.750 Y98.568 E0.02365
G1 X93.750 Y95.945 E0.08224
G1 X94.504 Y95.945 E0.02365
G1 X94.504 Y98.738 E0.08756
G1 X92.996 Y102.739 F10800.000
G1 F1200
G1 X92.996 Y99.343 E0.10647
G1 X92.868 Y99.216 E0.00565
G1 X92.787 Y99.216 E0.00257
G1 X92.787 Y99.559 E0.01076
G1 X92.413 Y99.185 E0.01656
G1 X92.242 Y99.185 E0.00536
G1 X92.242 Y102.826 E0.11415
G1 X92.553 Y102.806 F10800.000
G1 F1200
G1 X92.553 Y103.524 E0.01834
G1 X93.061 Y103.524 E0.01295
G1 X93.061 Y102.918 E0.01548
G1 X93.346 Y102.632 E0.01031
G1 X93.346 Y99.209 E0.08740
G1 X93.061 Y98.910 E0.01056
G1 X93.568 Y98.910 E0.01295
G1 X93.568 Y103.524 E0.11782
G1 X94.075 Y103.524 E0.01295
G1 X94.075 Y98.910 E0.11782
G1 X94.582 Y98.910 E0.01295
G1 X94.582 Y103.663 E0.12135
G1 F8640
G1 X94.582 Y100.371 E-0.76000
G1 E-0.04000 F2100.00000
G1 Z0.800 F10800.000
G1 X99.653 Y101.079
G1 Z0.200
G1 E0.80000 F2100.00000
G1 F1200
G1 X99.653 Y110.584 E0.24269
G1 X99.783 Y110.618 F10800.000
G1 F1200
G1 X99.783 Y118.025 E0.23223
G1 X99.955 Y118.025 E0.00537
G1 X99.955 Y115.718 E0.07234
G1 X100.538 Y115.718 E0.01828
G1 X100.538 Y110.788 E0.15457
G1 X101.292 Y110.788 E0.02365
G1 X101.292 Y115.718 E0.15457
G1 X102.046 Y115.718 E0.02365
G1 X102.046 Y109.541 E0.19365
G1 X102.800 Y109.541 E0.02365
G1 X102.800 Y113.411 E0.12131
G1 X103.554 Y113.411 E0.02365
G1 X103.554 Y109.541 E0.12131
G1 X103.569 Y109.541 E0.00046
G1 X103.569 Y110.788 E0.03908
G1 X104.308 Y110.788 E0.02318
G1 X104.308 Y113.411 E0.08224
G1 X105.062 Y113.411 E0.02365
G1 X105.062 Y110.788 E0.08224
G1 X105.817 Y110.788 E0.02365
G1 X105.817 Y113.580 E0.08756
G1 F8640
G1 X105.817 Y110.788 E-0.64480
G1 X105.318 Y110.788 E-0.11520
G1 E-0.04000 F2100.00000
G1 Z0.800 F10800.000
G1 X105.738 Y110.584
G1 Z0.200
G1 E0.80000 F2100.00000
G1 F1200
G1 X105.738 Y101.217 E0.23916
G1 X105.230 Y101.217 E0.01295
G1 X105.230 Y110.446 E0.23564
G1 X104.723 Y110.446 E0.01295
G1 X104.723 Y109.476 E0.02475
G1 X104.504 Y109.476 E0.00559
G1 X104.474 Y109.506 E0.00109
G1 X104.216 Y109.506 E0.00659
G1 X104.216 Y110.584 E0.02751
G1 X104.308 Y109.334 F10800.000
G1 F1200
G1 X104.308 Y102.876 E0.20250
G1 X104.216 Y102.842 F10800.000
G1 F1200
G1 X104.216 Y101.217 E0.04147
G1 X104.723 Y101.217 E0.01295
G1 X104.723 Y102.872 E0.04224
G1 F8640
G1 X104.723 Y101.217 E-0.38200
G1 X104.216 Y101.217 E-0.11709
G1 X104.216 Y102.347 E-0.26092
G1 E-0.04000 F2100.00000
G1 Z0.800 F10800.000
G1 X101.292 Y102.876
G1 Z0.200
G1 E0.80000 F2100.00000
G1 F1200
G1 X101.292 Y109.334 E0.20250
G1 F8640
G1 X101.292 Y106.043 E-0.76000
G1 E-0.04000 F2100.00000
G1 Z0.800 F10800.000
G1 X101.174 Y110.584
G1 Z0.200
G1 E0.80000 F2100.00000
G1 F1200
G1 X101.174 Y109.506 E0.02751
G1 X100.989 Y109.506 E0.00473
G1 X100.959 Y109.476 E0.00109
G1 X100.686 Y109.476 E0.00695
G1 X100.667 Y109.457 E0.00071
G1 X100.667 Y110.446 E0.02525
G1 X100.160 Y110.446 E0.01295
G1 X100.160 Y101.217 E0.23564
G1 X100.667 Y101.217 E0.01295
G1 X100.667 Y102.753 E0.03921
G1 X100.686 Y102.733 E0.00071
G1 X100.959 Y102.733 E0.00695
G1 X100.989 Y102.703 E0.00109
G1 X101.174 Y102.703 E0.00473
G1 X101.174 Y101.079 E0.04147
G1 X99.783 Y101.045 F10800.000
G1 F1200
G1 X99.783 Y95.945 E0.15989
G1 X99.955 Y95.945 E0.00537
G1 X99.955 Y98.252 E0.07234
G1 X100.538 Y98.252 E0.01828
G1 X100.538 Y100.875 E0.08224
G1 X101.292 Y100.875 E0.02365
G1 X101.292 Y98.252 E0.08224
G1 X102.046 Y98.252 E0.02365
G1 X102.046 Y102.668 E0.13846
G1 X102.800 Y102.668 E0.02365
G1 X102.800 Y98.252 E0.13846
G1 X103.554 Y98.252 E0.02365
G1 X103.554 Y102.668 E0.13846
G1 X103.569 Y102.668 E0.00046
G1 X103.569 Y100.875 E0.05622
G1 X104.308 Y100.875 E0.02318
G1 X104.308 Y98.252 E0.08224
G1 X105.062 Y98.252 E0.02365
G1 X105.062 Y100.875 E0.08224
G1 X105.817 Y100.875 E0.02365
G1 X105.817 Y98.252 E0.08224
G1 X106.571 Y98.252 E0.02365
G1 X106.571 Y113.411 E0.47527
G1 X107.325 Y113.411 E0.02365
G1 X107.325 Y98.252 E0.47527
G1 X108.079 Y98.252 E0.02365
G1 X108.079 Y113.411 E0.47527
G1 X108.833 Y113.411 E0.02365
G1 X108.833 Y98.252 E0.47527
G1 X109.587 Y98.252 E0.02365
G1 X109.587 Y113.411 E0.47527
G1 X110.342 Y113.411 E0.02365
G1 X110.342 Y98.252 E0.47527
G1 X111.096 Y98.252 E0.02365
G1 X111.096 Y113.580 E0.48059
G1 F8640
G1 X111.096 Y110.289 E-0.76000
G1 E-0.04000 F2100.00000
G1 Z0.800 F10800.000
G1 X99.029 Y118.194
G1 Z0.200
G1 E0.80000 F2100.00000
G1 F1200
G1 X99.029 Y95.945 E0.69760
G1 X98.275 Y95.945 E0.02365
G1 X98.275 Y118.025 E0.69228
G1 X97.521 Y118.025 E0.02365
G1 X97.521 Y95.945 E0.69228
G1 X96.767 Y95.945 E0.02365
G1 X96.767 Y118.025 E0.69228
G1 X96.013 Y118.025 E0.02365
G1 X96.013 Y95.945 E0.69228
G1 X95.258 Y95.945 E0.02365
G1 X95.258 Y118.025 E0.69228
G1 X94.504 Y118.025 E0.02365
G1 X94.504 Y115.402 E0.08224
G1 X93.750 Y115.402 E0.02365
G1 X93.750 Y118.025 E0.08224
G1 X92.996 Y118.025 E0.02365
G1 X92.996 Y115.402 E0.08224
G1 X92.242 Y115.402 E0.02365
G1 X92.242 Y118.025 E0.08224
G1 X91.488 Y118.025 E0.02365
G1 X91.488 Y115.402 E0.08224
G1 X90.733 Y115.402 E0.02365
G1 X90.733 Y118.025 E0.08224
G1 X89.979 Y118.025 E0.02365
G1 X89.979 Y115.402 E0.08224
G1 X89.225 Y115.402 E0.02365
G1 X89.225 Y118.025 E0.08224
G1 X88.471 Y118.025 E0.02365
G1 X88.471 Y115.402 E0.08224
G1 X87.717 Y115.402 E0.02365
G1 X87.717 Y118.025 E0.08224
G1 X86.963 Y118.025 E0.02365
G1 X86.963 Y107.481 E0.33060
G1 X86.209 Y107.481 E0.02365
G1 X86.209 Y118.025 E0.33060
G1 X85.454 Y118.025 E0.02365
G1 X85.454 Y107.481 E0.33060
G1 X84.700 Y107.481 E0.02365
G1 X84.700 Y118.025 E0.33060
G1 X83.946 Y118.025 E0.02365
G1 X83.946 Y107.481 E0.33060
G1 X83.192 Y107.481 E0.02365
G1 X83.192 Y118.194 E0.33592
G1 F8640
G1 X83.192 Y114.903 E-0.76000
G1 E-0.04000 F2100.00000
G1 Z0.800 F10800.000
G1 X87.990 Y115.198
G1 Z0.200
G1 E0.80000 F2100.00000
G1 F1200
G1 X87.990 Y110.446 E0.12135
G1 X88.497 Y110.446 E0.01295
G1 X88.497 Y115.060 E0.11782
G1 X89.004 Y115.060 E0.01295
G1 X89.004 Y110.446 E0.11782
G1 X89.511 Y110.446 E0.01295
G1 X89.511 Y115.060 E0.11782
G1 X90.018 Y115.060 E0.01295
G1 X90.018 Y110.446 E0.11782
G1 X90.525 Y110.446 E0.01295
G1 X90.525 Y115.060 E0.11782
G1 X91.032 Y115.060 E0.01295
G1 X91.032 Y110.446 E0.11782
G1 X91.539 Y110.446 E0.01295
G1 X91.539 Y115.060 E0.11782
G1 X92.046 Y115.060 E0.01295
G1 X92.046 Y110.446 E0.11782
G1 X92.553 Y110.446 E0.01295
G1 X92.553 Y115.060 E0.11782
G1 X93.061 Y115.060 E0.01295
G1 X93.061 Y110.446 E0.11782
G1 X93.568 Y110.446 E0.01295
G1 X93.568 Y115.060 E0.11782
G1 X94.075 Y115.060 E0.01295
G1 X94.075 Y110.446 E0.11782
G1 X94.582 Y110.446 E0.01295
G1 X94.582 Y115.198 E0.12135
G1 X94.504 Y110.273 F10800.000
G1 F1200
G1 X94.504 Y103.866 E0.20088
G1 X93.750 Y103.866 E0.02365
G1 X93.750 Y110.104 E0.19556
M73 Q3 S32
G1 X92.996 Y110.104 E0.02365
G1 X92.996 Y103.866 E0.19556
M73 P3 R31
G1 X92.242 Y103.866 E0.02365
G1 X92.242 Y110.104 E0.19556
G1 X91.488 Y110.104 E0.02365
G1 X91.488 Y107.481 E0.08224
G1 X90.733 Y107.481 E0.02365
G1 X90.733 Y110.104 E0.08224
G1 X89.979 Y110.104 E0.02365
G1 X89.979 Y107.481 E0.08224
G1 X89.225 Y107.481 E0.02365
G1 X89.225 Y110.104 E0.08224
G1 X88.471 Y110.104 E0.02365
G1 X88.471 Y107.481 E0.08224
G1 X87.717 Y107.481 E0.02365
G1 X87.717 Y110.273 E0.08756
G1 F8640
G1 X87.717 Y107.481 E-0.64480
G1 X88.216 Y107.481 E-0.11520
G1 E-0.04000 F2100.00000
G1 Z0.800 F10800.000
G1 X86.963 Y106.659
G1 Z0.200
G1 E0.80000 F2100.00000
G1 F1200
G1 X86.963 Y86.717 E0.62527
G1 X86.209 Y86.717 E0.02365
G1 X86.209 Y106.489 E0.61995
G1 X85.454 Y106.489 E0.02365
G1 X85.454 Y86.717 E0.61995
G1 X84.700 Y86.717 E0.02365
G1 X84.700 Y106.489 E0.61995
G1 X83.946 Y106.489 E0.02365
G1 X83.946 Y86.717 E0.61995
G1 X83.192 Y86.717 E0.02365
G1 X83.192 Y106.659 E0.62527
G1 F8640
G1 X83.192 Y103.368 E-0.76000
G1 E-0.04000 F2100.00000
G1 Z0.800 F10800.000
G1 X102.608 Y108.541
G1 Z0.200
G1 E0.80000 F2100.00000
G1 F1200
G1 X102.608 Y103.669 E0.15275
G1 X102.960 Y103.669 E0.01106
G1 X102.960 Y108.541 E0.15275
G1 X102.668 Y108.541 E0.00918
G1 X102.231 Y108.918 F10800.000
G1 F1200
G1 X102.231 Y103.292 E0.17640
G1 X103.338 Y103.292 E0.03471
G1 X103.338 Y108.918 E0.17640
G1 X102.291 Y108.918 E0.03283
G1 X102.256 Y108.519 F10800.000
G1 F8640
G1 X102.255 Y105.627 E-0.76000
G1 E-0.04000 F2100.00000
G1 Z0.800 F10800.000
G1 X91.046 Y102.033
G1 Z0.200
G1 E0.80000 F2100.00000
G1 F1200
G1 X90.680 Y102.033 E0.01148
G1 X90.685 Y99.809 E0.06973
G1 X91.042 Y99.809 E0.01119
G1 X91.046 Y101.973 E0.06785
G1 X91.423 Y102.410 F10800.000
G1 F1200
G1 X90.302 Y102.410 E0.03515
G1 X90.309 Y99.432 E0.09337
G1 X91.418 Y99.432 E0.03478
G1 X91.423 Y102.350 E0.09149
G1 X91.056 Y102.253 F10800.000
G1 F8640
G1 X90.302 Y102.410 E-0.25923
G1 X90.307 Y100.241 E-0.50077
G1 E-0.04000 F2100.00000
G1 Z0.800 F10800.000
G1 X110.496 Y106.293
G1 Z0.200
G1 E0.80000 F2100.00000
G1 F1200
G1 X110.496 Y86.351 E0.62527
G1 X111.250 Y86.351 E0.02365
G1 X111.250 Y106.124 E0.61995
G1 X112.004 Y106.124 E0.02365
G1 X112.004 Y86.351 E0.61995
G1 X112.758 Y86.351 E0.02365
G1 X112.758 Y106.124 E0.61995
G1 X113.512 Y106.124 E0.02365
G1 X113.512 Y86.351 E0.61995
G1 X114.267 Y86.351 E0.02365
G1 X114.267 Y106.293 E0.62527
G1 F8640
G1 X114.267 Y103.002 E-0.76000
G1 E-0.04000 F2100.00000
G1 Z0.800 F10800.000
G1 X115.021 Y109.907
G1 Z0.200
G1 E0.80000 F2100.00000
G1 F1200
G1 X115.021 Y107.115 E0.08756
G1 X115.775 Y107.115 E0.02365
G1 X115.775 Y109.738 E0.08224
G1 X116.529 Y109.738 E0.02365
G1 X116.529 Y107.115 E0.08224
G1 X117.283 Y107.115 E0.02365
G1 X117.283 Y109.738 E0.08224
G1 X118.037 Y109.738 E0.02365
G1 X118.037 Y107.115 E0.08224
G1 X118.791 Y107.115 E0.02365
G1 X118.791 Y109.738 E0.08224
G1 X119.546 Y109.738 E0.02365
G1 X119.546 Y103.501 E0.19556
G1 X120.300 Y103.501 E0.02365
G1 X120.300 Y109.738 E0.19556
G1 X121.054 Y109.738 E0.02365
G1 X121.054 Y103.501 E0.19556
G1 X121.808 Y103.501 E0.02365
G1 X121.808 Y109.907 E0.20088
G1 F8640
G1 X121.808 Y106.616 E-0.76000
G1 E-0.04000 F2100.00000
G1 Z0.800 F10800.000
G1 X121.886 Y114.832
G1 Z0.200
G1 E0.80000 F2100.00000
G1 F1200
G1 X121.886 Y110.080 E0.12135
G1 X121.379 Y110.080 E0.01295
G1 X121.379 Y114.694 E0.11782
G1 X120.871 Y114.694 E0.01295
G1 X120.871 Y110.080 E0.11782
G1 X120.364 Y110.080 E0.01295
G1 X120.364 Y114.694 E0.11782
G1 X119.857 Y114.694 E0.01295
G1 X119.857 Y110.080 E0.11782
G1 X119.350 Y110.080 E0.01295
G1 X119.350 Y114.694 E0.11782
G1 X118.843 Y114.694 E0.01295
G1 X118.843 Y110.080 E0.11782
G1 X118.336 Y110.080 E0.01295
G1 X118.336 Y114.694 E0.11782
G1 X117.829 Y114.694 E0.01295
G1 X117.829 Y110.080 E0.11782
G1 X117.322 Y110.080 E0.01295
G1 X117.322 Y114.694 E0.11782
G1 X116.815 Y114.694 E0.01295
G1 X116.815 Y110.080 E0.11782
G1 X116.308 Y110.080 E0.01295
G1 X116.308 Y114.694 E0.11782
G1 X115.801 Y114.694 E0.01295
G1 X115.801 Y110.080 E0.11782
G1 X115.294 Y110.080 E0.01295
G1 X115.294 Y114.832 E0.12135
G1 X110.496 Y117.829 F10800.000
G1 F1200
G1 X110.496 Y107.115 E0.33592
G1 X111.250 Y107.115 E0.02365
G1 X111.250 Y117.659 E0.33060
G1 X112.004 Y117.659 E0.02365
G1 X112.004 Y107.115 E0.33060
G1 X112.758 Y107.115 E0.02365
G1 X112.758 Y117.659 E0.33060
G1 X113.512 Y117.659 E0.02365
G1 X113.512 Y107.115 E0.33060
G1 X114.267 Y107.115 E0.02365
G1 X114.267 Y117.659 E0.33060
G1 X115.021 Y117.659 E0.02365
G1 X115.021 Y115.036 E0.08224
G1 X115.775 Y115.036 E0.02365
G1 X115.775 Y117.659 E0.08224
G1 X116.529 Y117.659 E0.02365
G1 X116.529 Y115.036 E0.08224
G1 X117.283 Y115.036 E0.02365
G1 X117.283 Y117.659 E0.08224
G1 X118.037 Y117.659 E0.02365
G1 X118.037 Y115.036 E0.08224
G1 X118.791 Y115.036 E0.02365
G1 X118.791 Y117.659 E0.08224
G1 X119.546 Y117.659 E0.02365
G1 X119.546 Y115.036 E0.08224
G1 X120.300 Y115.036 E0.02365
G1 X120.300 Y117.659 E0.08224
G1 X121.054 Y117.659 E0.02365
G1 X121.054 Y115.036 E0.08224
G1 X121.808 Y115.036 E0.02365
G1 X121.808 Y117.659 E0.08224
G1 X122.562 Y117.659 E0.02365
G1 X122.562 Y95.580 E0.69228
G1 X123.316 Y95.580 E0.02365
G1 X123.316 Y117.659 E0.69228
G1 X124.071 Y117.659 E0.02365
