; generated by PrusaSlicer 2.1.0+win64 on 2020-02-16 at 17:03:14 UTC

; 

; external perimeters extrusion width = 0.45mm
; perimeters extrusion width = 0.45mm
; infill extrusion width = 0.45mm
; solid infill extrusion width = 0.45mm
; top infill extrusion width = 0.40mm
; support material extrusion width = 0.35mm
; first layer extrusion width = 0.42mm

M73 P0 R122
M73 Q0 S123
M201 X1000 Y1000 Z1000 E5000 ; sets maximum accelerations, mm/sec^2
M203 X200 Y200 Z12 E120 ; sets maximum feedrates, mm/sec
M204 P1250 R1250 T1250 ; sets acceleration (P, T) and retract acceleration (R), mm/sec^2
M205 X8.00 Y8.00 Z0.40 E1.50 ; sets the jerk limits, mm/sec
M205 S0 T0 ; sets the minimum extruding and travel feed rate, mm/sec
M107
M862.3 P "MK3S" ; printer model check
M862.1 P0.4 ; nozzle diameter check
M115 U3.8.1 ; tell printer latest fw version
G90 ; use absolute coordinates
M83 ; extruder relative mode
M104 S215 ; set extruder temp
M140 S60 ; set bed temp
M190 S60 ; wait for bed temp
M109 S215 ; wait for extruder temp
G28 W ; home all without mesh bed level
G80 ; mesh bed leveling
G1 Y-3.0 F1000.0 ; go outside print area
G92 E0.0
G1 X60.0 E9.0 F1000.0 ; intro line
M73 Q0 S123
M73 P0 R122
G1 X100.0 E12.5 F1000.0 ; intro line
G92 E0.0
M221 S95
G21 ; set units to millimeters
G90 ; use absolute coordinates
M83 ; use relative distances for extrusion
M900 K30 ; Filament gcode
;BEFORE_LAYER_CHANGE
G92 E0.0
;0.2


G1 E-0.80000 F2100.00000
G1 Z0.600 F10800.000
;AFTER_LAYER_CHANGE
;0.2
G1 X147.271 Y163.237
G1 Z0.200
G1 E0.80000 F2100.00000
M204 S1000
G1 F1200
G1 X146.404 Y163.462 E0.02810
G1 X139.046 Y163.634 E0.23075
G1 X103.579 Y163.465 E1.11205
G1 X103.094 Y163.407 E0.01532
G1 X102.591 Y163.222 E0.01680
G1 X102.151 Y162.922 E0.01669
G1 X99.782 Y160.674 E0.10239
G1 X99.416 Y160.188 E0.01908
G1 X85.679 Y132.004 E0.98309
G1 X85.568 Y131.321 E0.02168
G1 X85.568 Y111.290 E0.62807
G1 X85.625 Y110.797 E0.01555
G1 X85.820 Y110.277 E0.01741
G1 X117.719 Y49.760 E2.14495
G1 X118.038 Y49.404 E0.01498
G1 X118.426 Y49.126 E0.01498
G1 X118.866 Y48.939 E0.01498
G1 X119.336 Y48.852 E0.01498
G1 X129.989 Y48.846 E0.33402
G1 X130.574 Y48.904 E0.01842
G1 X131.119 Y49.111 E0.01828
G1 X131.592 Y49.458 E0.01839
G1 X131.954 Y49.915 E0.01828
G1 X166.681 Y110.409 E2.18707
G1 X166.869 Y111.286 E0.02810
G1 X166.869 Y131.322 E0.62821
G1 X166.811 Y131.814 E0.01555
G1 X166.560 Y132.435 E0.02100
G1 X149.948 Y160.113 E1.01211
G1 X147.961 Y162.699 E0.10226
G1 X147.318 Y163.200 E0.02555
G1 F8640
G1 X146.404 Y163.462 E-0.21976
G1 X144.065 Y163.517 E-0.54024
G1 E-0.04000 F2100.00000
G1 Z0.800 F10800.000
G1 X139.039 Y161.446
G1 Z0.200
G1 E0.80000 F2100.00000
G1 F1200
G1 X139.039 Y90.437 E2.22643
G1 X138.285 Y90.437 E0.02365
G1 X138.285 Y161.276 E2.22111
G1 X138.040 Y161.276 E0.00767
G1 X138.040 Y158.958 E0.07267
G1 X137.531 Y158.958 E0.01597
G1 X137.531 Y90.437 E2.14844
G1 X137.027 Y90.437 E0.01578
G1 X137.027 Y83.484 E0.21802
G1 X136.776 Y83.484 E0.00786
G1 X136.776 Y158.958 E2.36646
G1 X136.022 Y158.958 E0.02365
G1 X136.022 Y83.484 E2.36646
G1 X135.268 Y83.484 E0.02365
G1 X135.268 Y158.958 E2.36646
G1 X134.514 Y158.958 E0.02365
G1 X134.514 Y78.848 E2.51181
G1 X133.760 Y78.848 E0.02365
G1 X133.760 Y158.958 E2.51181
G1 X133.404 Y158.958 E0.01114
G1 X133.404 Y156.641 E0.07267
G1 X133.006 Y156.641 E0.01250
G1 X133.006 Y78.848 E2.43913
G1 X132.392 Y78.848 E0.01925
G1 X132.392 Y76.530 E0.07267
G1 X132.252 Y76.530 E0.00439
G1 X132.252 Y156.641 E2.51181
G1 X131.497 Y156.641 E0.02365
G1 X131.497 Y128.522 E0.88164
M73 Q0 S122
M73 P0 R121
G1 X130.743 Y128.522 E0.02365
G1 X130.743 Y156.641 E0.88164
G1 X129.989 Y156.641 E0.02365
G1 X129.989 Y128.522 E0.88164
G1 X129.769 Y128.522 E0.00690
G1 X129.769 Y130.840 E0.07267
G1 X129.235 Y130.840 E0.01674
G1 X129.235 Y156.641 E0.80897
G1 X128.769 Y156.641 E0.01461
G1 X128.769 Y154.323 E0.07267
G1 X128.481 Y154.323 E0.00903
G1 X128.481 Y130.840 E0.73630
G1 X127.727 Y130.840 E0.02365
G1 X127.727 Y154.323 E0.73629
G1 X126.972 Y154.323 E0.02365
G1 X126.972 Y130.840 E0.73629
G1 X126.218 Y130.840 E0.02365
G1 X126.218 Y149.687 E0.59095
G1 X125.464 Y149.687 E0.02365
G1 X125.464 Y130.840 E0.59095
G1 X124.710 Y130.840 E0.02365
G1 X124.710 Y149.687 E0.59095
G1 X123.956 Y149.687 E0.02365
G1 X123.956 Y130.840 E0.59095
G1 X123.202 Y130.840 E0.02365
G1 X123.202 Y149.687 E0.59095
G1 X123.120 Y149.687 E0.00255
G1 X123.120 Y154.323 E0.14535
G1 X122.447 Y154.323 E0.02110
G1 X122.447 Y130.840 E0.73629
G1 X121.693 Y130.840 E0.02365
G1 X121.693 Y154.323 E0.73629
G1 X120.939 Y154.323 E0.02365
G1 X120.939 Y130.840 E0.73629
G1 X120.185 Y130.840 E0.02365
G1 X120.185 Y156.641 E0.80897
G1 X119.431 Y156.641 E0.02365
G1 X119.431 Y128.522 E0.88164
G1 X118.677 Y128.522 E0.02365
G1 X118.677 Y156.641 E0.88164
G1 X117.922 Y156.641 E0.02365
G1 X117.922 Y128.522 E0.88164
G1 X117.485 Y128.522 E0.01372
G1 X117.485 Y123.698 E0.15126
G1 X117.485 Y116.238 E0.23390
G1 X117.922 Y116.238 E0.01372
G1 X117.922 Y76.530 E1.24501
G1 X118.677 Y76.530 E0.02365
G1 X118.677 Y116.238 E1.24501
G1 X119.431 Y116.238 E0.02365
G1 X119.431 Y76.530 E1.24501
G1 X119.498 Y76.530 E0.00210
G1 X119.498 Y51.034 E0.79941
G1 X120.185 Y51.034 E0.02155
G1 X120.185 Y105.171 E1.69741
G1 X120.761 Y104.852 E0.02064
G1 X120.939 Y104.828 E0.00565
G1 X120.939 Y51.034 E1.68665
G1 X121.693 Y51.034 E0.02365
G1 X121.693 Y104.855 E1.68753
G1 X121.760 Y104.858 E0.00210
G1 X122.447 Y104.829 E0.02156
G1 X122.447 Y51.034 E1.68668
G1 X123.202 Y51.034 E0.02365
G1 X123.202 Y104.895 E1.68876
G1 X123.397 Y104.969 E0.00656
G1 X123.806 Y105.176 E0.01435
G1 X123.895 Y105.262 E0.00387
G1 X123.956 Y105.371 E0.00394
G1 X123.956 Y51.034 E1.70370
G1 X124.710 Y51.034 E0.02365
G1 X124.710 Y118.556 E2.11709
G1 X125.464 Y118.556 E0.02365
G1 X125.464 Y51.034 E2.11709
G1 X126.218 Y51.034 E0.02365
G1 X126.218 Y105.164 E1.69721
G1 X126.622 Y104.961 E0.01418
G1 X126.972 Y104.832 E0.01171
G1 X126.972 Y51.034 E1.68679
G1 X127.727 Y51.034 E0.02365
G1 X127.727 Y104.842 E1.68711
M73 Q1 S121
M73 P1 R120
G1 X128.240 Y104.858 E0.01610
G1 X128.481 Y104.850 E0.00756
G1 X128.481 Y51.034 E1.68735
G1 X129.235 Y51.034 E0.02365
G1 X129.235 Y104.851 E1.68737
G1 X129.855 Y105.193 E0.02223
G1 X129.989 Y105.294 E0.00525
G1 X129.989 Y51.034 E1.70128
G1 X130.074 Y51.034 E0.00266
G1 X130.074 Y76.530 E0.79941
G1 X130.743 Y76.530 E0.02099
G1 X130.743 Y116.238 E1.24501
G1 X131.497 Y116.238 E0.02365
G1 X131.497 Y76.361 E1.25033
G1 F8640
G1 X131.497 Y79.652 E-0.76000
G1 E-0.04000 F2100.00000
G1 Z0.800 F10800.000
G1 X130.408 Y117.486
G1 Z0.200
G1 E0.80000 F2100.00000
G1 F1200
G1 X130.408 Y118.679 E0.03045
G1 X130.717 Y118.700 E0.00792
G1 X130.632 Y119.769 E0.02738
G1 X130.491 Y120.997 E0.03156
G1 X130.408 Y121.464 E0.01210
G1 X130.408 Y122.674 E0.03091
G1 F8640
G1 X130.408 Y121.464 E-0.27948
G1 X130.491 Y120.997 E-0.10938
G1 X130.632 Y119.769 E-0.28543
G1 X130.661 Y119.399 E-0.08571
G1 E-0.04000 F2100.00000
G1 Z0.800 F10800.000
G1 X128.481 Y121.725
G1 Z0.200
G1 E0.80000 F2100.00000
G1 F1200
G1 X128.481 Y115.410 E0.19800
G1 X128.256 Y115.511 E0.00770
G1 X128.141 Y115.527 E0.00366
G1 X127.727 Y115.467 E0.01311
G1 X127.727 Y121.556 E0.19089
G1 X126.972 Y121.556 E0.02365
G1 X126.972 Y115.155 E0.20070
G1 X126.588 Y114.854 E0.01529
G1 X126.531 Y114.786 E0.00280
G1 X126.218 Y114.181 E0.02135
G1 X126.218 Y121.725 E0.23656
G1 F8640
G1 X126.218 Y118.434 E-0.76000
G1 E-0.04000 F2100.00000
G1 Z0.800 F10800.000
G1 X125.747 Y123.374
G1 Z0.200
G1 E0.80000 F2100.00000
G1 F1200
G1 X125.747 Y122.556 E0.02090
G1 X125.673 Y121.829 E0.01865
G1 X125.597 Y120.727 E0.02821
G1 X125.584 Y119.841 E0.02264
G1 X125.747 Y119.838 E0.00418
G1 X125.747 Y118.760 E0.02753
G1 F8640
G1 X125.747 Y119.838 E-0.24891
G1 X125.584 Y119.841 E-0.03780
G1 X125.597 Y120.727 E-0.20474
G1 X125.673 Y121.829 E-0.25509
G1 X125.679 Y121.887 E-0.01346
G1 E-0.04000 F2100.00000
G1 Z0.800 F10800.000
G1 X124.194 Y118.760
G1 Z0.200
G1 E0.80000 F2100.00000
G1 F1200
G1 X124.194 Y119.837 E0.02751
G1 X124.416 Y119.841 E0.00568
G1 X124.403 Y120.729 E0.02267
G1 X124.307 Y122.050 E0.03382
G1 X124.240 Y122.674 E0.01603
G1 X124.194 Y122.870 E0.00515
G1 X124.194 Y123.373 E0.01286
G1 F8640
G1 X124.194 Y122.870 E-0.11625
G1 X124.240 Y122.674 E-0.04655
G1 X124.307 Y122.050 E-0.14492
G1 X124.403 Y120.729 E-0.30585
G1 X124.412 Y120.094 E-0.14643
G1 E-0.04000 F2100.00000
G1 Z0.800 F10800.000
G1 X123.956 Y121.725
G1 Z0.200
G1 E0.80000 F2100.00000
G1 F1200
G1 X123.956 Y120.181 E0.04841
G1 X123.585 Y120.176 E0.01163
G1 X123.795 Y119.695 E0.01647
G1 X123.956 Y118.558 E0.03600
G1 X123.956 Y113.729 E0.15141
G1 X123.897 Y113.958 E0.00740
G1 X123.469 Y114.786 E0.02924
G1 X123.412 Y114.855 E0.00280
G1 X123.202 Y115.019 E0.00836
G1 X123.202 Y121.556 E0.20496
G1 X122.447 Y121.556 E0.02365
G1 X122.447 Y115.442 E0.19168
G1 X121.859 Y115.527 E0.01863
G1 X121.693 Y115.488 E0.00535
G1 X121.693 Y121.556 E0.19024
G1 X120.939 Y121.556 E0.02365
G1 X120.939 Y121.278 E0.00871
G1 X121.218 Y119.230 E0.06481
G1 X120.939 Y119.230 E0.00873
G1 X120.939 Y115.145 E0.12810
G1 X120.873 Y115.094 E0.00261
G1 X120.185 Y114.214 E0.03503
G1 X120.185 Y124.951 E0.33667
G1 X120.216 Y125.077 E0.00405
G1 X120.499 Y125.669 E0.02059
G1 X120.939 Y126.086 E0.01902
G1 X120.939 Y125.522 E0.01769
G1 X121.693 Y125.522 E0.02365
G1 X121.693 Y126.343 E0.02574
G1 X122.080 Y126.404 E0.01228
G1 X122.447 Y126.399 E0.01152
G1 X122.447 Y125.352 E0.03280
G1 F8640
G1 X122.447 Y126.399 E-0.24156
G1 X122.080 Y126.404 E-0.08481
G1 X121.693 Y126.343 E-0.09046
G1 X121.693 Y125.522 E-0.18954
G1 X121.028 Y125.522 E-0.15364
G1 E-0.04000 F2100.00000
G1 Z0.800 F10800.000
G1 X120.052 Y125.207
G1 Z0.200
G1 E0.80000 F2100.00000
G1 F1200
G1 X120.052 Y128.175 E0.07577
G1 X120.150 Y128.175 E0.00252
G1 X120.150 Y130.492 E0.05918
G1 X120.569 Y130.492 E0.01071
G1 X120.569 Y126.228 E0.10888
G1 X120.767 Y126.391 E0.00655
G1 X121.087 Y126.525 E0.00886
G1 X121.087 Y130.492 E0.10130
G1 X121.605 Y130.492 E0.01322
G1 X121.605 Y126.681 E0.09732
G1 X122.123 Y126.753 E0.01335
G1 X122.123 Y130.492 E0.09549
G1 X122.641 Y130.492 E0.01322
G1 X122.641 Y126.742 E0.09576
G1 X122.764 Y126.735 E0.00316
G1 X123.158 Y126.658 E0.01026
G1 X123.158 Y130.492 E0.09791
G1 X123.676 Y130.492 E0.01322
G1 X123.676 Y126.453 E0.10315
G1 X123.831 Y126.348 E0.00476
G1 X124.064 Y126.067 E0.00933
G1 X124.113 Y125.978 E0.00260
G1 X124.194 Y125.743 E0.00635
G1 X124.194 Y130.492 E0.12127
G1 X124.712 Y130.492 E0.01322
G1 X124.712 Y118.903 E0.29591
G1 X125.230 Y118.903 E0.01322
G1 X125.230 Y130.492 E0.29591
G1 X125.747 Y130.492 E0.01322
G1 X125.747 Y125.565 E0.12582
G1 X125.887 Y125.978 E0.01114
G1 X125.936 Y126.067 E0.00260
G1 X126.169 Y126.348 E0.00933
G1 X126.265 Y126.423 E0.00311
G1 X126.265 Y130.492 E0.10389
G1 X126.783 Y130.492 E0.01322
G1 X126.783 Y126.646 E0.09821
G1 X127.301 Y126.741 E0.01344
G1 X127.301 Y130.492 E0.09579
G1 X127.819 Y130.492 E0.01322
G1 X127.819 Y126.751 E0.09552
G1 X127.959 Y126.750 E0.00358
G1 X128.336 Y126.690 E0.00976
G1 X128.336 Y130.492 E0.09709
G1 X128.854 Y130.492 E0.01322
G1 X128.854 Y126.549 E0.10068
G1 X129.233 Y126.391 E0.01048
G1 X129.372 Y126.284 E0.00448
G1 X129.372 Y130.492 E0.10745
G1 X129.421 Y130.492 E0.00126
G1 X129.421 Y128.175 E0.05918
G1 X129.890 Y128.175 E0.01196
G1 X129.890 Y125.662 E0.06415
G1 X130.126 Y125.150 E0.01441
G1 X130.353 Y124.148 E0.02623
G1 X130.408 Y123.778 E0.00955
G1 X130.408 Y128.175 E0.11227
G1 X130.926 Y128.175 E0.01322
G1 X130.926 Y116.585 E0.29591
G1 X131.443 Y116.585 E0.01322
G1 X131.443 Y128.318 E0.29957
G1 F8640
G1 X131.443 Y125.026 E-0.76000
G1 E-0.04000 F2100.00000
G1 Z0.800 F10800.000
G1 X129.989 Y124.951
G1 Z0.200
G1 E0.80000 F2100.00000
G1 F1200
G1 X129.989 Y122.843 E0.06612
G1 X129.723 Y122.819 E0.00837
G1 X129.912 Y122.251 E0.01877
G1 X129.989 Y121.829 E0.01344
G1 X129.989 Y113.730 E0.25395
G1 X129.800 Y114.242 E0.01711
G1 X129.235 Y114.958 E0.02859
G1 X129.235 Y125.934 E0.34416
G1 X129.069 Y126.083 E0.00698
G1 X128.481 Y126.315 E0.01984
G1 X128.481 Y125.522 E0.02487
G1 X127.727 Y125.522 E0.02365
G1 X127.727 Y126.402 E0.02759
G1 X127.307 Y126.394 E0.01316
G1 X126.972 Y126.329 E0.01069
G1 X126.972 Y125.352 E0.03063
G1 F8640
G1 X126.972 Y126.329 E-0.22556
G1 X127.307 Y126.394 E-0.07869
G1 X127.727 Y126.402 E-0.09688
G1 X127.727 Y125.522 E-0.20319
G1 X128.401 Y125.522 E-0.15567
G1 E-0.04000 F2100.00000
G1 Z0.800 F10800.000
G1 X119.534 Y128.318
G1 Z0.200
G1 E0.80000 F2100.00000
G1 F1200
G1 X119.534 Y121.137 E0.18334
G1 X119.368 Y119.769 E0.03518
G1 X119.283 Y118.701 E0.02737
G1 X119.534 Y118.683 E0.00642
G1 X119.534 Y118.151 E0.01359
G1 X119.331 Y116.585 E0.04031
G1 X119.016 Y116.585 E0.00804
G1 X119.016 Y128.175 E0.29591
G1 X118.498 Y128.175 E0.01322
G1 X118.498 Y116.585 E0.29591
G1 X117.980 Y116.585 E0.01322
G1 X117.980 Y128.318 E0.29957
G1 F8640
G1 X117.980 Y125.026 E-0.76000
G1 E-0.04000 F2100.00000
G1 Z0.800 F10800.000
G1 X109.627 Y131.314
G1 Z0.200
G1 E0.80000 F2100.00000
G1 F1200
G1 X109.627 Y99.708 E0.99099
G1 X108.873 Y99.708 E0.02365
G1 X108.873 Y131.145 E0.98567
G1 X108.118 Y131.145 E0.02365
G1 X108.118 Y99.708 E0.98567
G1 X107.909 Y99.708 E0.00658
G1 X107.909 Y102.026 E0.07267
G1 X107.364 Y102.026 E0.01707
G1 X107.364 Y131.145 E0.91300
G1 X106.610 Y131.145 E0.02365
G1 X106.610 Y102.026 E0.91300
G1 X105.856 Y102.026 E0.02365
G1 X105.856 Y131.145 E0.91300
G1 X105.102 Y131.145 E0.02365
G1 X105.102 Y102.026 E0.91300
G1 X104.348 Y102.026 E0.02365
G1 X104.348 Y131.145 E0.91300
G1 X103.593 Y131.145 E0.02365
G1 X103.593 Y102.026 E0.91300
G1 X103.273 Y102.026 E0.01005
G1 X103.273 Y104.344 E0.07267
G1 X102.839 Y104.344 E0.01360
G1 X102.839 Y131.145 E0.84032
G1 X102.085 Y131.145 E0.02365
G1 X102.085 Y104.344 E0.84032
G1 X101.331 Y104.344 E0.02365
G1 X101.331 Y131.145 E0.84032
G1 X100.577 Y131.145 E0.02365
G1 X100.577 Y106.662 E0.76765
G1 X99.823 Y106.662 E0.02365
G1 X99.823 Y131.145 E0.76765
G1 X99.069 Y131.145 E0.02365
G1 X99.069 Y106.662 E0.76765
G1 X98.314 Y106.662 E0.02365
G1 X98.314 Y131.145 E0.76765
G1 X97.560 Y131.145 E0.02365
G1 X97.560 Y106.662 E0.76765
G1 X96.806 Y106.662 E0.02365
G1 X96.806 Y131.145 E0.76765
M73 Q2 S120
M73 P2 R119
G1 X96.052 Y131.145 E0.02365
G1 X96.052 Y106.662 E0.76765
G1 X95.298 Y106.662 E0.02365
G1 X95.298 Y131.145 E0.76765
G1 X94.544 Y131.145 E0.02365
G1 X94.544 Y106.662 E0.76765
G1 X94.002 Y106.662 E0.01699
G1 X94.002 Y108.980 E0.07267
G1 X93.789 Y108.980 E0.00666
G1 X93.789 Y131.145 E0.69498
G1 X93.035 Y131.145 E0.02365
G1 X93.035 Y108.980 E0.69498
G1 X92.281 Y108.980 E0.02365
G1 X92.281 Y131.145 E0.69498
G1 X91.527 Y131.145 E0.02365
G1 X91.527 Y108.980 E0.69498
G1 X90.773 Y108.980 E0.02365
G1 X90.773 Y131.145 E0.69498
G1 X90.019 Y131.145 E0.02365
G1 X90.019 Y108.980 E0.69498
G1 X89.366 Y108.980 E0.02046
G1 X89.366 Y111.297 E0.07267
G1 X89.264 Y111.297 E0.00319
G1 X89.264 Y131.145 E0.62230
G1 X88.510 Y131.145 E0.02365
G1 X88.510 Y111.297 E0.62230
G1 X87.756 Y111.297 E0.02365
G1 X87.756 Y131.314 E0.62762
G1 F8640
G1 X87.756 Y128.023 E-0.76000
G1 E-0.04000 F2100.00000
G1 Z0.800 F10800.000
G1 X101.331 Y159.128
G1 Z0.200
G1 E0.80000 F2100.00000
G1 F1200
G1 X101.331 Y141.429 E0.55495
G1 X102.085 Y141.429 E0.02365
G1 X102.085 Y158.958 E0.54963
G1 X102.839 Y158.958 E0.02365
G1 X102.839 Y141.429 E0.54963
G1 X103.593 Y141.429 E0.02365
G1 X103.593 Y161.276 E0.62230
G1 X104.348 Y161.276 E0.02365
G1 X104.348 Y141.429 E0.62230
G1 X105.102 Y141.429 E0.02365
G1 X105.102 Y161.276 E0.62230
G1 X105.856 Y161.276 E0.02365
G1 X105.856 Y136.793 E0.76765
G1 X106.610 Y136.793 E0.02365
G1 X106.610 Y161.276 E0.76765
G1 X107.364 Y161.276 E0.02365
G1 X107.364 Y136.793 E0.76765
G1 X107.909 Y136.793 E0.01707
G1 X107.909 Y134.475 E0.07267
G1 X108.118 Y134.475 E0.00658
G1 X108.118 Y161.276 E0.84032
G1 X108.873 Y161.276 E0.02365
G1 X108.873 Y134.475 E0.84032
G1 X109.627 Y134.475 E0.02365
G1 X109.627 Y161.276 E0.84032
G1 X110.381 Y161.276 E0.02365
G1 X110.381 Y92.755 E2.14844
G1 X111.135 Y92.755 E0.02365
G1 X111.135 Y161.276 E2.14844
G1 X111.531 Y161.276 E0.01243
G1 X111.531 Y158.958 E0.07267
G1 X111.889 Y158.958 E0.01122
G1 X111.889 Y92.755 E2.07577
