; generated by PrusaSlicer 2.1.0+win64 on 2020-02-20 at 12:09:00 UTC

; 

; external perimeters extrusion width = 0.45mm
; perimeters extrusion width = 0.45mm
; infill extrusion width = 0.45mm
; solid infill extrusion width = 0.45mm
; top infill extrusion width = 0.40mm
; support material extrusion width = 0.35mm
; first layer extrusion width = 0.42mm

M73 P0 R127
M73 Q0 S128
M201 X1000 Y1000 Z1000 E8000 ; sets maximum accelerations, mm/sec^2
M203 X200 Y200 Z12 E120 ; sets maximum feedrates, mm/sec
M204 P1250 R1250 T1250 ; sets acceleration (P, T) and retract acceleration (R), mm/sec^2
M205 X8.00 Y8.00 Z0.40 E1.50 ; sets the jerk limits, mm/sec
M205 S0 T0 ; sets the minimum extruding and travel feed rate, mm/sec
M107
M862.3 P "MK3SMMU2S" ; printer model check
M862.1 P0.4 ; nozzle diameter check
M115 U3.8.1 ; tell printer latest fw version
G90 ; use absolute coordinates
M83 ; extruder relative mode
M104 S215 ; set extruder temp
M140 S60 ; set bed temp
M190 S60 ; wait for bed temp
M109 S215 ; wait for extruder temp
G28 W ; home all without mesh bed level
G80 ; mesh bed leveling
G21 ; set units to millimeters

; Send the filament type to the MMU2.0 unit.
; E stands for extruder number, F stands for filament type (0: default; 1:flex; 2: PVA)
M403 E0 F0
M403 E1 F0
M403 E2 F0
M403 E3 F0
M403 E4 F0


;go outside print area
G1 Y-3.0 F1000.0
G1 Z0.4 F1000.0
; select extruder
T0
; initial load
G1 X55.0 E29.0 F1073.0
M73 Q0 S127
M73 P0 R126
G1 X5.0 E29.0 F1800.0
G1 X55.0 E8.0 F2000.0
G1 Z0.3 F1000.0
G92 E0.0
G1 X240.0 E25.0 F2200.0
G1 Y-2.0 F1000.0
G1 X55.0 E25 F1400.0
G1 Z0.20 F1000.0
G1 X5.0 E4.0 F1000.0
G92 E0.0


M221 S95
G92 E0.0
G21 ; set units to millimeters
G90 ; use absolute coordinates
M83 ; use relative distances for extrusion
M900 K30 ; Filament gcode
;BEFORE_LAYER_CHANGE
G92 E0.0
;0.2


G1 E-0.80000 F2100.00000
G1 Z0.600 F10800.000
;AFTER_LAYER_CHANGE
;0.2
G1 X111.632 Y40.206
G1 Z0.200
G1 E0.80000 F2100.00000
M204 S1000
G1 F1200
G1 X111.950 Y39.845 E0.01510
G1 X112.343 Y39.561 E0.01521
G1 X112.786 Y39.371 E0.01510
G1 X113.259 Y39.283 E0.01510
G1 X123.998 Y39.277 E0.33671
G1 X124.562 Y39.350 E0.01783
G1 X125.084 Y39.565 E0.01771
G1 X125.537 Y39.909 E0.01783
G1 X125.886 Y40.358 E0.01783
G1 X162.812 Y105.476 E2.34717
G1 X163.000 Y106.353 E0.02810
G1 X163.000 Y126.388 E0.62819
G1 X162.939 Y126.895 E0.01601
G1 X162.760 Y127.377 E0.01612
G1 X146.157 Y159.680 E1.13881
G1 X145.750 Y160.226 E0.02134
G1 X145.198 Y160.619 E0.02123
G1 X144.753 Y160.783 E0.01487
G1 X144.287 Y160.848 E0.01475
G1 X132.170 Y161.019 E0.37997
G1 X95.196 Y161.019 E1.15928
G1 X94.689 Y160.958 E0.01601
G1 X94.246 Y160.800 E0.01475
G1 X93.847 Y160.551 E0.01475
G1 X93.511 Y160.222 E0.01475
G1 X93.251 Y159.825 E0.01487
G1 X77.275 Y126.868 E1.14834
G1 X77.174 Y126.214 E0.02078
G1 X77.174 Y106.187 E0.62793
G1 X77.235 Y105.680 E0.01601
G1 X77.426 Y105.175 E0.01692
G1 X111.604 Y40.259 E2.30026
G1 F8640
G1 X111.950 Y39.845 E-0.12468
G1 X112.343 Y39.561 E-0.11201
G1 X112.786 Y39.371 E-0.11117
G1 X113.259 Y39.283 E-0.11117
G1 X114.563 Y39.282 E-0.30097
G1 E-0.04000 F2100.00000
G1 Z0.800 F10800.000
G1 X120.841 Y100.023
G1 Z0.200
G1 E0.80000 F2100.00000
G1 F1200
G1 X120.841 Y41.465 E1.83605
G1 X121.596 Y41.465 E0.02365
G1 X121.596 Y99.501 E1.81968
G1 X121.884 Y99.414 E0.00946
G1 X122.350 Y99.439 E0.01461
G1 X122.350 Y41.465 E1.81773
G1 X123.104 Y41.465 E0.02365
G1 X123.104 Y99.452 E1.81815
G1 X123.764 Y99.432 E0.02072
G1 X123.858 Y99.448 E0.00299
G1 X123.858 Y41.465 E1.81803
G1 X123.998 Y41.465 E0.00439
G1 X123.998 Y64.643 E0.72673
G1 X124.612 Y64.643 E0.01925
G1 X124.612 Y100.043 E1.10995
G1 F8640
G1 X124.612 Y96.752 E-0.76000
G1 E-0.04000 F2100.00000
G1 Z0.800 F10800.000
G1 X120.087 Y113.792
G1 Z0.200
G1 E0.80000 F2100.00000
G1 F1200
G1 X120.087 Y41.465 E2.26775
M73 Q1 S126
G1 X119.333 Y41.465 E0.02365
G1 X119.333 Y113.622 E2.26243
M73 P1 R125
G1 X118.579 Y113.622 E0.02365
G1 X118.579 Y41.465 E2.26243
G1 X117.825 Y41.465 E0.02365
G1 X117.825 Y99.703 E1.82601
G1 X117.071 Y99.422 E0.02524
G1 X117.071 Y41.465 E1.81718
G1 X116.316 Y41.465 E0.02365
G1 X116.316 Y99.446 E1.81796
G1 X115.950 Y99.457 E0.01150
G1 X115.562 Y99.445 E0.01215
G1 X115.562 Y41.465 E1.81792
G1 X114.808 Y41.465 E0.02365
G1 X114.808 Y99.560 E1.82152
G1 X114.224 Y99.884 E0.02095
G1 X114.054 Y100.013 E0.00669
G1 X114.054 Y41.465 E1.83573
G1 X113.422 Y41.465 E0.01982
G1 X113.422 Y69.279 E0.87208
G1 X113.300 Y69.279 E0.00383
G1 X113.300 Y111.304 E1.31768
G1 X112.546 Y111.304 E0.02365
G1 X112.546 Y69.279 E1.31768
G1 X111.791 Y69.279 E0.02365
G1 X111.791 Y111.304 E1.31768
G1 X111.409 Y111.304 E0.01199
G1 X111.409 Y118.764 E0.23390
G1 X111.409 Y123.588 E0.15126
G1 X111.791 Y123.588 E0.01199
G1 X111.791 Y156.343 E1.02699
G1 X112.409 Y156.343 E0.01937
G1 X112.409 Y154.025 E0.07267
G1 X112.546 Y154.025 E0.00428
G1 X112.546 Y123.588 E0.95431
G1 X113.300 Y123.588 E0.02365
G1 X113.300 Y154.025 E0.95431
G1 X114.054 Y154.025 E0.02365
G1 X114.054 Y125.906 E0.88164
G1 X114.808 Y125.906 E0.02365
G1 X114.808 Y154.025 E0.88164
G1 X115.562 Y154.025 E0.02365
G1 X115.562 Y125.906 E0.88164
G1 X116.316 Y125.906 E0.02365
G1 X116.316 Y154.025 E0.88164
G1 X117.045 Y154.025 E0.02284
G1 X117.045 Y149.389 E0.14535
G1 X117.071 Y149.389 E0.00081
G1 X117.071 Y125.906 E0.73629
G1 X117.825 Y125.906 E0.02365
G1 X117.825 Y149.389 E0.73629
G1 X118.579 Y149.389 E0.02365
G1 X118.579 Y125.906 E0.73629
G1 X119.333 Y125.906 E0.02365
G1 X119.333 Y149.389 E0.73629
G1 X120.087 Y149.389 E0.02365
G1 X120.087 Y125.906 E0.73629
G1 X120.841 Y125.906 E0.02365
G1 X120.841 Y151.707 E0.80897
G1 X121.596 Y151.707 E0.02365
G1 X121.596 Y125.906 E0.80897
G1 X122.350 Y125.906 E0.02365
G1 X122.350 Y151.707 E0.80897
G1 X122.693 Y151.707 E0.01077
G1 X122.693 Y154.025 E0.07267
G1 X123.104 Y154.025 E0.01288
G1 X123.104 Y125.906 E0.88164
G1 X123.858 Y125.906 E0.02365
G1 X123.858 Y154.025 E0.88164
G1 X124.612 Y154.025 E0.02365
G1 X124.612 Y125.906 E0.88164
G1 X125.366 Y125.906 E0.02365
G1 X125.366 Y154.195 E0.88696
M73 Q1 S125
G1 F8640
G1 X125.366 Y150.903 E-0.76000
G1 E-0.04000 F2100.00000
G1 Z0.800 F10800.000
G1 X132.154 Y158.830
G1 Z0.200
G1 E0.80000 F2100.00000
G1 F1200
G1 X132.154 Y78.550 E2.51713
M73 P2 R124
G1 X131.400 Y78.550 E0.02365
G1 X131.400 Y156.343 E2.43913
G1 X130.645 Y156.343 E0.02365
G1 X130.645 Y73.914 E2.58448
G1 X129.891 Y73.914 E0.02365
G1 X129.891 Y156.343 E2.58448
G1 X129.137 Y156.343 E0.02365
G1 X129.137 Y73.914 E2.58448
G1 X128.634 Y73.914 E0.01578
G1 X128.634 Y69.279 E0.14535
G1 X128.383 Y69.279 E0.00786
G1 X128.383 Y156.343 E2.72983
G1 X127.629 Y156.343 E0.02365
G1 X127.629 Y69.279 E2.72983
G1 X126.875 Y69.279 E0.02365
G1 X126.875 Y154.025 E2.65715
G1 X126.120 Y154.025 E0.02365
G1 X126.120 Y64.643 E2.80250
G1 X125.366 Y64.643 E0.02365
G1 X125.366 Y111.304 E1.46303
G1 X125.209 Y111.304 E0.00493
G1 X125.155 Y111.875 E0.01797
G1 X124.977 Y113.248 E0.04342
G1 X124.836 Y113.834 E0.01889
G1 X125.244 Y113.868 E0.01284
G1 X125.047 Y116.029 E0.06802
G1 X124.797 Y117.415 E0.04417
G1 X124.624 Y117.938 E0.01727
G1 X125.089 Y117.991 E0.01468
G1 X124.915 Y119.346 E0.04284
G1 X124.672 Y120.419 E0.03449
G1 X124.612 Y120.566 E0.00497
G1 X124.612 Y109.177 E0.35711
G1 X123.858 Y110.114 E0.03772
G1 X123.858 Y121.683 E0.36273
G1 X123.318 Y121.908 E0.01835
G1 X123.104 Y121.945 E0.00681
G1 X123.104 Y110.467 E0.35988
G1 X122.968 Y110.528 E0.00468
G1 X122.852 Y110.544 E0.00366
G1 X122.350 Y110.472 E0.01590
G1 X122.350 Y116.622 E0.19283
G1 X121.596 Y116.622 E0.02365
G1 X121.596 Y110.140 E0.20325
G1 X121.193 Y109.825 E0.01601
G1 X121.136 Y109.756 E0.00280
G1 X120.841 Y109.186 E0.02012
G1 X120.841 Y116.792 E0.23846
G1 F8640
G1 X120.841 Y113.500 E-0.76000
G1 E-0.04000 F2100.00000
G1 Z0.800 F10800.000
G1 X117.825 Y116.792
G1 Z0.200
G1 E0.80000 F2100.00000
G1 F1200
G1 X117.825 Y109.645 E0.22408
G1 X117.710 Y109.826 E0.00671
G1 X117.071 Y110.325 E0.02543
G1 X117.071 Y116.622 E0.19745
G1 X116.316 Y116.622 E0.02365
G1 X116.316 Y110.506 E0.19176
G1 X116.051 Y110.544 E0.00840
G1 X115.935 Y110.528 E0.00367
G1 X115.562 Y110.361 E0.01282
G1 X115.562 Y116.622 E0.19631
G1 X115.244 Y116.622 E0.00996
G1 X115.560 Y114.304 E0.07334
G1 X114.808 Y114.304 E0.02356
G1 X114.808 Y109.835 E0.14015
G1 X114.282 Y109.165 E0.02670
G1 X114.054 Y108.539 E0.02089
G1 X114.054 Y119.639 E0.34803
G1 X114.237 Y120.437 E0.02567
G1 X114.547 Y121.174 E0.02505
G1 X114.808 Y121.480 E0.01263
G1 X114.808 Y120.588 E0.02797
G1 X115.562 Y120.588 E0.02365
G1 X115.562 Y121.898 E0.04107
G1 X115.585 Y121.908 E0.00079
G1 X116.316 Y122.019 E0.02318
G1 X116.316 Y120.419 E0.05018
G1 F8640
G1 X116.316 Y122.019 E-0.36953
G1 X115.585 Y121.908 E-0.17073
G1 X115.562 Y121.898 E-0.00579
G1 X115.562 Y120.972 E-0.21395
G1 E-0.04000 F2100.00000
G1 Z0.800 F10800.000
G1 X113.729 Y117.795
G1 Z0.200
G1 E0.80000 F2100.00000
G1 F1200
G1 X113.729 Y116.477 E0.03367
G1 F8640
G1 X113.729 Y117.795 E-0.30444
G1 E-0.49556 F2100.00000
G1 Z0.800 F10800.000
G1 X112.176 Y111.509
G1 Z0.200
G1 E0.80000 F2100.00000
G1 F1200
G1 X112.176 Y123.241 E0.29957
G1 X112.694 Y123.241 E0.01322
G1 X112.694 Y111.652 E0.29591
G1 X113.211 Y111.652 E0.01322
G1 X113.211 Y123.241 E0.29591
G1 X113.729 Y123.241 E0.01322
G1 X113.729 Y119.779 E0.08840
G1 X113.911 Y120.558 E0.02043
G1 X114.247 Y121.349 E0.02196
G1 X114.247 Y125.559 E0.10748
G1 X114.765 Y125.559 E0.01322
G1 X114.765 Y121.922 E0.09285
G1 X114.849 Y121.977 E0.00256
G1 X115.283 Y122.158 E0.01201
G1 X115.283 Y125.559 E0.08683
G1 X115.800 Y125.559 E0.01322
G1 X115.800 Y122.297 E0.08329
G1 X116.318 Y122.367 E0.01334
G1 X116.318 Y125.559 E0.08150
G1 X116.836 Y125.559 E0.01322
G1 X116.836 Y122.355 E0.08180
G1 X117.008 Y122.347 E0.00439
G1 X117.354 Y122.277 E0.00902
G1 X117.354 Y125.559 E0.08380
G1 X117.872 Y125.559 E0.01322
G1 X117.872 Y122.096 E0.08841
G1 X118.064 Y121.998 E0.00551
G1 X118.167 Y121.908 E0.00350
G1 X118.390 Y121.591 E0.00989
G1 X118.390 Y125.559 E0.10131
G1 X118.907 Y125.559 E0.01322
G1 X118.907 Y113.970 E0.29591
G1 X119.425 Y113.970 E0.01322
G1 X119.425 Y125.559 E0.29591
G1 X119.943 Y125.559 E0.01322
G1 X119.943 Y113.970 E0.29591
G1 X120.301 Y113.970 E0.00913
G1 X120.435 Y114.844 E0.02258
G1 X120.113 Y114.848 E0.00821
G1 X120.124 Y115.651 E0.02051
G1 X120.208 Y116.912 E0.03225
G1 X120.301 Y117.846 E0.02398
G1 X120.455 Y118.574 E0.01899
G1 X120.106 Y118.580 E0.00891
G1 X120.120 Y119.416 E0.02136
G1 X120.199 Y120.266 E0.02180
G1 X120.296 Y120.959 E0.01786
G1 X120.461 Y121.501 E0.01449
G1 X120.461 Y125.559 E0.10360
G1 X120.979 Y125.559 E0.01322
G1 X120.979 Y122.069 E0.08910
G1 X121.240 Y122.203 E0.00750
G1 X121.496 Y122.266 E0.00674
G1 X121.496 Y125.559 E0.08408
G1 X122.014 Y125.559 E0.01322
G1 X122.014 Y122.354 E0.08183
G1 X122.532 Y122.365 E0.01322
G1 X122.532 Y125.559 E0.08154
G1 X123.050 Y125.559 E0.01322
G1 X123.050 Y122.305 E0.08308
G1 X123.368 Y122.255 E0.00821
G1 X123.568 Y122.180 E0.00545
G1 X123.568 Y125.559 E0.08626
G1 X124.085 Y125.559 E0.01322
G1 X124.085 Y121.957 E0.09197
G1 X124.319 Y121.751 E0.00795
G1 X124.603 Y121.427 E0.01100
G1 X124.603 Y125.559 E0.10549
G1 X125.121 Y125.559 E0.01322
G1 X125.121 Y120.012 E0.14164
G1 X125.258 Y119.403 E0.01593
G1 X125.474 Y117.685 E0.04420
G1 X125.121 Y117.645 E0.00907
G1 X125.121 Y117.546 E0.00252
G1 X125.392 Y116.067 E0.03840
G1 X125.453 Y115.537 E0.01362
G1 X125.620 Y113.551 E0.05089
G1 X125.268 Y113.522 E0.00900
G1 X125.320 Y113.302 E0.00577
G1 X125.525 Y111.652 E0.04245
G1 X125.639 Y111.652 E0.00291
G1 X125.639 Y125.702 E0.35875
G1 F8640
G1 X125.639 Y122.410 E-0.76000
G1 E-0.04000 F2100.00000
G1 Z0.800 F10800.000
G1 X103.496 Y128.699
G1 Z0.200
G1 E0.80000 F2100.00000
G1 F1200
G1 X103.496 Y94.775 E1.06366
M73 Q2 S124
G1 X102.742 Y94.775 E0.02365
G1 X102.742 Y128.529 E1.05834
G1 X101.987 Y128.529 E0.02365
G1 X101.987 Y94.775 E1.05834
M73 P2 R123
G1 X101.833 Y94.775 E0.00484
G1 X101.833 Y97.092 E0.07267
G1 X101.233 Y97.092 E0.01880
G1 X101.233 Y128.529 E0.98567
G1 X100.479 Y128.529 E0.02365
G1 X100.479 Y97.092 E0.98567
G1 X99.725 Y97.092 E0.02365
G1 X99.725 Y128.529 E0.98567
G1 X98.971 Y128.529 E0.02365
G1 X98.971 Y97.092 E0.98567
G1 X98.217 Y97.092 E0.02365
G1 X98.217 Y128.529 E0.98567
G1 X97.462 Y128.529 E0.02365
G1 X97.462 Y97.092 E0.98567
G1 X97.197 Y97.092 E0.00831
G1 X97.197 Y99.410 E0.07267
G1 X96.708 Y99.410 E0.01533
G1 X96.708 Y128.529 E0.91300
G1 X95.954 Y128.529 E0.02365
G1 X95.954 Y99.410 E0.91300
G1 X95.200 Y99.410 E0.02365
G1 X95.200 Y128.529 E0.91300
G1 X94.446 Y128.529 E0.02365
G1 X94.446 Y99.410 E0.91300
G1 X93.692 Y99.410 E0.02365
G1 X93.692 Y128.529 E0.91300
G1 X92.937 Y128.529 E0.02365
G1 X92.937 Y99.410 E0.91300
G1 X92.562 Y99.410 E0.01178
G1 X92.562 Y101.728 E0.07267
G1 X92.183 Y101.728 E0.01186
G1 X92.183 Y126.211 E0.76765
G1 X91.429 Y126.211 E0.02365
G1 X91.429 Y101.728 E0.76765
G1 X90.675 Y101.728 E0.02365
G1 X90.675 Y126.211 E0.76765
G1 X89.921 Y126.211 E0.02365
G1 X89.921 Y101.728 E0.76765
G1 X89.167 Y101.728 E0.02365
G1 X89.167 Y126.211 E0.76765
G1 X88.413 Y126.211 E0.02365
G1 X88.413 Y101.728 E0.76765
G1 X87.658 Y101.728 E0.02365
G1 X87.658 Y126.211 E0.76765
G1 X86.904 Y126.211 E0.02365
G1 X86.904 Y101.728 E0.76765
G1 X86.150 Y101.728 E0.02365
G1 X86.150 Y126.211 E0.76765
G1 X85.396 Y126.211 E0.02365
G1 X85.396 Y104.046 E0.69498
G1 X84.642 Y104.046 E0.02365
G1 X84.642 Y126.211 E0.69498
G1 X83.888 Y126.211 E0.02365
G1 X83.888 Y104.046 E0.69498
G1 X83.133 Y104.046 E0.02365
G1 X83.133 Y126.211 E0.69498
G1 X82.379 Y126.211 E0.02365
G1 X82.379 Y104.046 E0.69498
G1 X81.625 Y104.046 E0.02365
G1 X81.625 Y126.211 E0.69498
G1 X80.871 Y126.211 E0.02365
G1 X80.871 Y106.364 E0.62230
G1 X80.117 Y106.364 E0.02365
G1 X80.117 Y126.211 E0.62230
G1 X79.363 Y126.211 E0.02365
G1 X79.363 Y106.194 E0.62762
G1 F8640
G1 X79.363 Y109.485 E-0.76000
G1 E-0.04000 F2100.00000
G1 Z0.800 F10800.000
G1 X95.200 Y158.830
G1 Z0.200
G1 E0.80000 F2100.00000
G1 F1200
G1 X95.200 Y138.813 E0.62762
G1 X95.954 Y138.813 E0.02365
G1 X95.954 Y158.660 E0.62230
G1 X96.708 Y158.660 E0.02365
G1 X96.708 Y138.813 E0.62230
G1 X97.197 Y138.813 E0.01533
G1 X97.197 Y136.495 E0.07267
G1 X97.462 Y136.495 E0.00831
G1 X97.462 Y158.660 E0.69498
G1 X98.217 Y158.660 E0.02365
G1 X98.217 Y136.495 E0.69498
G1 X98.971 Y136.495 E0.02365
G1 X98.971 Y158.660 E0.69498
G1 X99.725 Y158.660 E0.02365
G1 X99.725 Y134.177 E0.76765
G1 X100.479 Y134.177 E0.02365
G1 X100.479 Y158.660 E0.76765
G1 X101.233 Y158.660 E0.02365
G1 X101.233 Y134.177 E0.76765
G1 X101.833 Y134.177 E0.01880
G1 X101.833 Y131.860 E0.07267
G1 X101.987 Y131.860 E0.00484
G1 X101.987 Y158.660 E0.84032
G1 X102.742 Y158.660 E0.02365
G1 X102.742 Y131.860 E0.84032
G1 X103.496 Y131.860 E0.02365
G1 X103.496 Y158.660 E0.84032
M73 Q3 S123
G1 X104.250 Y158.660 E0.02365
G1 X104.250 Y85.503 E2.29379
M73 P3 R122
G1 X105.004 Y85.503 E0.02365
G1 X105.004 Y158.660 E2.29379
G1 X105.758 Y158.660 E0.02365
G1 X105.758 Y85.503 E2.29379
G1 X106.469 Y85.503 E0.02227
G1 X106.469 Y76.232 E0.29069
G1 X106.512 Y76.232 E0.00137
G1 X106.512 Y158.660 E2.58448
G1 X107.266 Y158.660 E0.02365
G1 X107.267 Y76.232 E2.58448
G1 X108.021 Y76.232 E0.02365
G1 X108.021 Y156.343 E2.51181
G1 X108.775 Y156.343 E0.02365
G1 X108.786 Y71.597 E2.65715
G1 X109.529 Y71.597 E0.02329
G1 X109.529 Y156.343 E2.65715
G1 X110.283 Y156.343 E0.02365
G1 X110.283 Y71.597 E2.65715
G1 X111.037 Y71.597 E0.02365
G1 X111.037 Y156.512 E2.66247
G1 F8640
G1 X111.037 Y153.221 E-0.76000
G1 E-0.04000 F2100.00000
G1 Z0.800 F10800.000
G1 X144.220 Y140.961
G1 Z0.200
G1 E0.80000 F2100.00000
G1 F1200
G1 X144.220 Y158.660 E0.55495
G1 X143.466 Y158.660 E0.02365
G1 X143.466 Y141.131 E0.54963
G1 X142.712 Y141.131 E0.02365
G1 X142.712 Y158.660 E0.54963
G1 X141.958 Y158.660 E0.02365
G1 X141.958 Y138.813 E0.62230
G1 X141.204 Y138.813 E0.02365
G1 X141.204 Y158.660 E0.62230
G1 X140.449 Y158.660 E0.02365
G1 X140.449 Y138.813 E0.62230
G1 X140.223 Y138.813 E0.00711
G1 X140.223 Y136.495 E0.07267
G1 X139.695 Y136.495 E0.01654
G1 X139.695 Y158.660 E0.69498
G1 X138.941 Y158.660 E0.02365
G1 X138.941 Y136.495 E0.69498
G1 X138.187 Y136.495 E0.02365
G1 X138.187 Y158.660 E0.69498
